src/images/single-assets/PAE.svg

<svg xmlns="http://www.w3.org/2000/svg" viewBox="0 0 741 741"><defs><linearGradient id="a" x1="684.06" x2="56.9" y1="1044.96" y2="682.88" gradientTransform="matrix(1 0 0 -1 0 1234.38)" gradientUnits="userSpaceOnUse"><stop offset="0" stop-color="#fff"/><stop offset="1" stop-color="#999"/></linearGradient><linearGradient id="b" x1="312.96" x2="245.51" y1="606.66" y2="525.1" gradientUnits="userSpaceOnUse"><stop offset="0" stop-color="#00c8f9"/><stop offset="1" stop-color="#0068c9"/></linearGradient><linearGradient id="c" x1="638.87" x2="211.11" y1="331.28" y2="309.15" gradientUnits="userSpaceOnUse"><stop offset="0" stop-color="#00c2fe"/><stop offset="1" stop-color="#0068c9"/></linearGradient><linearGradient id="d" x1="187.22" x2="557.79" y1="434.71" y2="438.24" gradientUnits="userSpaceOnUse"><stop offset="0" stop-color="#0084d7"/><stop offset="1" stop-color="#00c8f9"/></linearGradient><linearGradient id="e" x1="195.63" x2="195.63" y1="593.38" y2="593.38" gradientUnits="userSpaceOnUse"><stop offset="0" stop-color="#d0d2d3"/><stop offset="1" stop-color="#404041"/></linearGradient></defs><g data-name="Layer 2"><g data-name="Layer 1"><g data-name="Layer 2"><g data-name="Layer 1-2"><path d="M370.5 732.5c-200-.13-362-162.36-361.86-362.34a362.11 362.11 0 0 1 221-333.22c184.47-77.23 396.62 9.71 473.84 194.18 76.88 183.63-8.9 394.89-192 472.94A359.9 359.9 0 0 1 370.5 732.5" style="fill:url(#a)"/><path d="M370.5 17c195.29.13 353.5 158.56 353.36 353.84a353.61 353.61 0 0 1-215.77 325.39c-180.19 75.28-387.3-9.77-462.58-190-74.87-179.15 8.8-385.23 187.4-461.46A351.2 351.2 0 0 1 370.5 17m0-17C165.88 0 0 165.88 0 370.5S165.88 741 370.5 741 741 575.12 741 370.5 575.12 0 370.5 0" style="fill:#fff"/><g data-name="Layer 2-2"><path d="M195.63 593.38h130.62v-99.25h-31.37a99.26 99.26 0 0 0-99.25 99.25" style="fill:url(#b)"/><path d="M609.55 320a173.2 173.2 0 0 1-168.14 174.13 107.85 107.85 0 0 0-3.92-215.63H326.25a130.63 130.63 0 0 1-130.62-130.63h238.85c95.57 0 174.52 76.61 175.07 172.13" style="fill:url(#c)"/><path d="M437.49 278.5a42.63 42.63 0 0 1 41.45 41.81c.4 23.81-19.59 43.28-43.4 43.28H326.25a130.62 130.62 0 0 0-130.62 130.62v99.17a99.23 99.23 0 0 1 96.18-99.17s149 0 149.6-.08a107.85 107.85 0 0 0-3.92-215.63" style="fill:url(#d)"/><path d="M195.63 593.38" style="fill:url(#e)"/></g></g></g></g></g></svg>

<svg xmlns="http://www.w3.org/2000/svg" xmlns:xlink="http://www.w3.org/1999/xlink" viewBox="0 0 741 741"><defs><style>.cls-1{fill:url(#linear-gradient);}.cls-2{fill:#fff;}.cls-3{fill:url(#linear-gradient-2);}.cls-4{fill:url(#linear-gradient-3);}.cls-5{fill:url(#linear-gradient-4);}.cls-6{fill:url(#linear-gradient-5);}</style><linearGradient id="linear-gradient" x1="684.06" y1="1044.96" x2="56.9" y2="682.88" gradientTransform="matrix(1, 0, 0, -1, 0, 1234.38)" gradientUnits="userSpaceOnUse"><stop offset="0" stop-color="#fff"/><stop offset="1" stop-color="#999"/></linearGradient><linearGradient id="linear-gradient-2" x1="312.96" y1="606.66" x2="245.51" y2="525.1" gradientUnits="userSpaceOnUse"><stop offset="0" stop-color="#00c8f9"/><stop offset="1" stop-color="#0068c9"/></linearGradient><linearGradient id="linear-gradient-3" x1="638.87" y1="331.28" x2="211.11" y2="309.15" gradientUnits="userSpaceOnUse"><stop offset="0" stop-color="#00c2fe"/><stop offset="1" stop-color="#0068c9"/></linearGradient><linearGradient id="linear-gradient-4" x1="187.22" y1="434.71" x2="557.79" y2="438.24" gradientUnits="userSpaceOnUse"><stop offset="0" stop-color="#0084d7"/><stop offset="1" stop-color="#00c8f9"/></linearGradient><linearGradient id="linear-gradient-5" x1="195.63" y1="593.38" x2="195.63" y2="593.38" gradientUnits="userSpaceOnUse"><stop offset="0" stop-color="#d0d2d3"/><stop offset="1" stop-color="#404041"/></linearGradient></defs><g id="Layer_2" data-name="Layer 2"><g id="Layer_1-2" data-name="Layer 1"><g id="Layer_2-2" data-name="Layer 2"><g id="Layer_1-2-2" data-name="Layer 1-2"><path class="cls-1" d="M370.5,732.5c-200-.13-362-162.36-361.86-362.34a362.11,362.11,0,0,1,221-333.22c184.47-77.23,396.62,9.71,473.84,194.18,76.88,183.63-8.9,394.89-192,472.94A359.9,359.9,0,0,1,370.5,732.5Z"/><path class="cls-2" d="M370.5,17C565.79,17.13,724,175.56,723.86,370.84A353.61,353.61,0,0,1,508.09,696.23c-180.19,75.28-387.3-9.77-462.58-190C-29.36,327.08,54.31,121,232.91,44.77A351.17,351.17,0,0,1,370.5,17m0-17C165.88,0,0,165.88,0,370.5S165.88,741,370.5,741,741,575.12,741,370.5,575.12,0,370.5,0Z"/><g id="Layer_2-2-2" data-name="Layer 2-2"><path class="cls-3" d="M195.63,593.38H326.25V494.13H294.88a99.26,99.26,0,0,0-99.25,99.25Z"/><path class="cls-4" d="M609.55,320A173.2,173.2,0,0,1,441.41,494.13a107.85,107.85,0,0,0-3.92-215.63H326.25A130.63,130.63,0,0,1,195.63,147.87H434.48C530.05,147.87,609,224.48,609.55,320Z"/><path class="cls-5" d="M437.49,278.5a42.63,42.63,0,0,1,41.45,41.81c.4,23.81-19.59,43.28-43.4,43.28H326.25A130.62,130.62,0,0,0,195.63,494.21h0v99.17a99.23,99.23,0,0,1,96.18-99.17s149,0,149.6-.08a107.85,107.85,0,0,0-3.92-215.63Z"/><polygon class="cls-6" points="195.63 593.38 195.63 593.38 195.63 593.38 195.63 593.38"/></g></g></g></g></g></svg>
